app/images/participant-modal/2.svg

<svg width="102" height="127" viewBox="0 0 102 127" fill="none" xmlns="http://www.w3.org/2000/svg">
<g opacity="0.3" filter="url(#filter0_f)">
<path d="M81.7461 107H22.2148V94.1094L49.6367 65.2812C56.3945 57.5859 59.7734 51.4727 59.7734 46.9414C59.7734 43.2695 58.9727 40.4766 57.3711 38.5625C55.7695 36.6484 53.4453 35.6914 50.3984 35.6914C47.3906 35.6914 44.9492 36.9805 43.0742 39.5586C41.1992 42.0977 40.2617 45.2813 40.2617 49.1094H20.457C20.457 43.875 21.7656 39.0508 24.3828 34.6367C27 30.1836 30.6328 26.707 35.2812 24.207C39.9297 21.707 45.125 20.457 50.8672 20.457C60.0859 20.457 67.1758 22.5859 72.1367 26.8438C77.1367 31.1016 79.6367 37.2148 79.6367 45.1836C79.6367 48.543 79.0117 51.8242 77.7617 55.0273C76.5117 58.1914 74.5586 61.5312 71.9023 65.0469C69.2852 68.5234 65.0469 73.1914 59.1875 79.0508L48.1719 91.7656H81.7461V107Z" fill="#5160E0"/>
</g>
<defs>
<filter id="filter0_f" x="0.457031" y="0.457031" width="101.289" height="126.543" filterUnits="userSpaceOnUse" color-interpolation-filters="sRGB">
<feFlood flood-opacity="0" result="BackgroundImageFix"/>
<feBlend mode="normal" in="SourceGraphic" in2="BackgroundImageFix" result="shape"/>
<feGaussianBlur stdDeviation="10" result="effect1_foregroundBlur"/>
</filter>
</defs>
</svg>

<svg width="102" height="127" fill="none" xmlns="http://www.w3.org/2000/svg"><g opacity=".3" filter="url(#filter0_f)"><path d="M81.746 107H22.215V94.11L49.637 65.28c6.758-7.695 10.136-13.808 10.136-18.34 0-3.672-.8-6.464-2.402-8.379-1.602-1.914-3.926-2.87-6.973-2.87-3.007 0-5.449 1.288-7.324 3.867-1.875 2.539-2.812 5.722-2.812 9.55H20.457c0-5.234 1.309-10.058 3.926-14.472 2.617-4.453 6.25-7.93 10.898-10.43 4.649-2.5 9.844-3.75 15.586-3.75 9.219 0 16.309 2.129 21.27 6.387 5 4.258 7.5 10.37 7.5 18.34 0 3.359-.625 6.64-1.875 9.843-1.25 3.164-3.203 6.504-5.86 10.02-2.617 3.476-6.855 8.144-12.715 14.004L48.172 91.766h33.574V107z" fill="#5160E0"/></g><defs><filter id="filter0_f" x=".457" y=".457" width="101.289" height="126.543" filterUnits="userSpaceOnUse" color-interpolation-filters="sRGB"><feFlood flood-opacity="0" result="BackgroundImageFix"/><feBlend in="SourceGraphic" in2="BackgroundImageFix" result="shape"/><feGaussianBlur stdDeviation="10" result="effect1_foregroundBlur"/></filter></defs></svg>
